X:1
T:Musiciens qui chantez à plaisir
T:Musiciens qui chantez à plaisir
T:Hubert Waelrant
C:Hubert Waelrant
%%score [ 1 2 3 4 ]
L:1/8
Q:1/4=122
M:2/2
K:F
V:1 treble nm="S."
V:2 treble nm="A."
V:3 treble-8 nm="T."
V:4 bass nm="B."
V:1
 z4 z2 d2 | dd c2 A2 B2 | G A2 F B2 A2 | A2 AA d3 c | B2 A3 G G2- | G2 ^F2 G4 | z2 G2 B2 B2 | %7
w: Si|vous la bai- sez comp-|tez, comp- tez quin- ze,|si vous la bai- sez|comp- tez * quin-|* * ze.|Si vous tou-|
 A4 z2 A2 | AG A2 AAAG | A4 A4 | z ddc d4 | A4 z2 d2 | dd d2 B4 | c2 d2 B2 Bd | c2 d2 B2 Bd | %15
w: chez le|té- tin, tren- te, le té- tin,|tren- te.|Si vous a- vez|la mot-|te pri- se, la|mot- te pri- se, la|mot- te pri- se, la|
 c2 d2 B4 | A4 B2 BB | A2 B2 c2 d2 | c2 B4 A2 | B8 | z4 z2 c2 | ccAA B2 c2 | d2 B2 B2 BA | %23
w: mot- te pri-|se, qua- ran- te|cinq lors se *|pré- sen- *|te.|Mais|si vous met- tez en la|fen- te, mais si vous|
 GF G2 F2 G2 | AA B2 A2 A2- | A2 G2 A2 A2 | A4 z4 | z2 F4 G2 | A3 F G2 A2- | AG G4 ^F2 | G8 | %31
w: met- tez en la fen-|te, c'est de quoy la|* dame à mes-|tier:|vous ga-|gnez le jeu tout|* * en- *|tier.|
 z4 z2 c2 | ccAA B2 c2 | d2 B2 B2 BA | GF G2 F2 G2 | AA B2 A2 A2- | A2 G2 A2 A2 | A4 z4 | %38
w: Mais|si vous met- tez en la|fen- te, mais si vous|met- tez en la fen-|te, c'est de quoy la|* dame à mes-|tier:|
 z2 F4 G2 | A3 F G2 A2- | AG G4 ^F2 | G8 |] %42
w: vous ga-|gnez le jeu tout|* * en- *|tier.|
V:2
 G2 GG B4 | A2 A2 F2 G2 | E2 F3 G E2 | F4 F2 FF | G2 C2 _E2 E2 | D4 B,4 | z4 z2 B,2 | C2 D3 G, G2 | %8
w: Si vous la bai-|sez comp- tez, comp-|tez, comp- tez quin-|ze, si vous la|bai- sez comp- tez|quin- ze.|Si|vous tou- chez le|
 FD F2 EEFD | F2 EE FD E2 | D2 A2 AA A2 | z2 D2 DDDD | F3 A G2 FG | A2 A2 G2 FG | A2 A2 G2 FG | %15
w: té- tin, tren- te, le té- tin,|tren- te, le té- tin, tren-|te. Si vous a- vez,|si vous a- vez la|mot- te pri- se, la|mot- te pri- se, la|mot- te pri- se, la|
 A2 A2 G4 | F4 G2 GG | F2 G2 A4- | A2 F2 F4 | D2 F2 FFDD | E2 F2 G4 | A4 z4 | F2 FE DC D2- | %23
w: mot- te pri-|se, qua- ran- te|cinq lors se|* pré- sen-|te. Mais si vous met- tez|en la fen-|te,|mais si vous met- tez en|
 D2 C2 D2 DD | F2 FB, C2 D2 | E2 D2 D2 ^C2 | D2 F4 G2 | A4 D4 | F3 E/D/ E2 F2 | D2 C2 D4 | %30
w: * la fen- te, c'est|de quoy, c'est de quoy|la dame à mes-|tier: vous ga-|gnez le|jeu * * * tout|en- * tier.|
 z2 D2 DDDD | E2 F2 G4 | A4 z4 | F2 FE DC D2- | D2 C2 D2 DD | F2 FB, C2 D2 | E2 D2 D2 ^C2 | %37
w: Mais si vous met- tez|en la fen-|te,|mais si vous met- tez en|* la fen- te, c'est|de quoy, c'est de quoy|la dame à mes-|
 D2 F4 G2 | A4 D4 | F3 E/D/ E2 F2 | D2 C2 D4- | D8 |] %42
w: tier: vous ga-|gnez le|jeu * * * tout|en- * tier.||
V:3
 z4 g2 gg | f2 e2 f2 d2 | e2 c d2 B c2 | d2 A2 AA d2- | dBcA B2 c2 | A4 G2 d2 | _e2 e2 d4 | %7
w: Si vous la|bai- sez comp- tez,|comp- tez, comp- tez quin-|ze, si vous la bai-|* sez comp- tez, comp- tez,|quin- ze. Si|vous tou- chez,|
 z4 B2 c2 | d2 Ad dc d2 | Addc d2 Ae | fd e2 d2 z2 | f2 ff f2 z2 | d2 dd d2 d2 | e2 f2 d2 dd | %14
w: Si vous|tou- chez le té- tin, tren-|te, le té- tin, tren- te, le|té- tin, tren- te.|Si vous a- vez,|si vous a- vez la|mot- te pri- se, la|
 e2 f2 d2 dd | e2 f2 d2 d2 | d2 dd G2 z2 | d2 dd f2 f2 | e2 d2 c4 | B4 z4 | z8 | f2 ff ddef | %22
w: mot- te pri- se, la|mot- te pri- se,|qua- ran- te cinq,|qua- ran- te cinq lors|se pré- sen-|te.||Mais si vous met- tez en la|
 d2 d2 z2 B2 | BAGG A2 B2 | c2 dd f2 fB | c2 d2 e2 e2 | f2 f2 d4 | z4 B4 | c2 d2 B2 c2 | %29
w: fen- te, mais|si vous met- tez en la|fen- te, c'est de quoy, c'est|de quoy la dame|à mes- tier:|vous|ga- * gnez le|
 B2 AG A2 A2 | G8 | z8 | f2 ff ddef | d2 d2 z2 B2 | BAGG A2 B2 | c2 dd f2 fB | c2 d2 e2 e2 | %37
w: jeu * * tout en-|tier.||Mais si vous met- tez en la|fen- te, mais|si vous met- tez en la|fen- te, c'est de quoy, c'est|de quoy la dame|
 f2 f2 d4 | z4 B4 | c2 d2 B2 c2 | B2 AG A2 A2 | G8 |] %42
w: à mes- tier:|vous|ga- * gnez le|jeu * * tout en-|tier.|
V:4
 z4 G,2 G,G, | D2 A,2 D2 B,2 | C2 A, B,2 G, A,2 | D,4 D,2 D,D, | G,2 F,2 G,2 C,2 | D,4 G,2 G,2 | %6
w: Si vous la|bai- sez comp- tez,|comp- tez, comp- tez quin-|ze, si vous la|bai- sez comp- tez|quin- ze. Si|
 C,2 C,2 G,4 | z2 F,2 G,2 A,2 | D,G,F,D, A,2 D,G, | F,D, A,2 D,DDC | D2 A,2 D2 DD | %11
w: vous tou- chez,|Si vous tou-|chez le té- tin, tren- te, le|té- tin, tren- te, le té- tin,|tren- te. Si vous a-|
 D2 z2 B,2 B,B, | B,3 F, G,2 B,2 | A,2 D,F, G,2 B,2 | A,2 D,F, G,2 B,2 | A,2 D,2 G,2 G,G, | %16
w: vez, si vous a-|vez la mot- te|pri- se, la mot- te|pri- se, la mot- te|pri- se, qua- ran- te|
 D,2 z2 G,2 G,G, | D,2 G,2 F,3 G, | A,2 B,2 F,4 | B,,4 B,2 B,B, | G,G, A,2 B,2 C2 | F,4 z4 | %22
w: cinq, qua- ran- te|cinq lors se *|* pré- sen-|te. Mais si vous|met- tez en la fen-|te,|
 z2 B,2 B,A,G,F, | G,D, E,2 D,2 G,2 | F,2 D,G, F,2 D,2 | A,2 B,2 A,2 A,2 | D,4 B,4 | C2 D2 z2 G,2 | %28
w: mais si vous met- tez|en la fen- te, c'est|de quoy, c'est de quoy|la dame à mes-|tier: vous|ga- gnez, vous|
 F,2 D,2 G,2 F,2 | G,2 _E,2 D,4 | G,4 B,2 B,B, | G,G, A,2 B,2 C2 | F,4 z4 | z2 B,2 B,A,G,F, | %34
w: ga- * gnez le|jeu tout en-|tier. Mais si vous|met- tez en la fen-|te,|mais si vous met- tez|
 G,D, E,2 D,2 G,2 | F,2 D,G, F,2 D,2 | A,2 B,2 A,2 A,2 | D,4 B,4 | C2 D2 z2 G,2 | F,2 D,2 G,2 F,2 | %40
w: en la fen- te, c'est|de quoy, c'est de quoy|la dame à mes-|tier: vous|ga- gnez, vous|ga- * gnez le|
 G,2 _E,2 D,4 | G,8 |] %42
w: jeu tout en-|tier.|

